X: 4
T: Devils Of Dublin
R: reel
M: 4/4
L: 1/8
K: Dmaj
Adcd BAFB | AF ~F2 DF ~F2 | Ad d2 Ad d2 | eB B2 eB B2 |
dcBA BAFB | AF ~F2 DF ~F2 | ABde f2 ec | dBAG FD D2 :|
a3 g f3 e | d3 A BAFB | Ad ~d2 Ad ~d2 | eB ~B2 eB ~B2 |
a3 g f3 e | d3 A BAFB | ABde f2 ec | dBAG FD D2 :|


Tune 538	Setting 538

